svgs/sharp-regular/cat-space.svg

<svg xmlns="http://www.w3.org/2000/svg" viewBox="0 0 640 512"><!--! Font Awesome Pro 6.6.0 by @fontawesome - https://fontawesome.com License - https://fontawesome.com/license (Commercial License) Copyright 2024 Fonticons, Inc. --><path d="M243.4 44.6L296 64 243.4 83.4 224 136 204.6 83.4 152 64l52.6-19.4L224-8l19.4 52.6zM144 279c34.5-46.4 85.2-80.1 144.3-92.7c-.2-3.4-.3-6.9-.3-10.3C288 78.8 366.8 0 464 0s176 78.8 176 176c0 68.4-39 127.7-96 156.8L544 488l0 24-24 0-80 0-24 0 0-24 0-84.2-80 32.9 0 27.2 24 0 24 0 0 48-24 0-240 0-24 0 0-24 0-64c0 0 0-.1 0-.1L96 184c0-22.1-17.9-40-40-40l-24 0 0-48 24 0c48.6 0 88 39.4 88 88l0 95zm0 144.9l0 40.1 144 0 0-64c0-17.7-14.3-32-32-32l-32 0 0-48 32 0c39.2 0 71.8 28.2 78.7 65.4l91.2-37.6c-60-13.3-108.5-57.1-128.3-114.4C209 252.6 144 331.2 144 423.9zM464 368l0 96 32 0 0-114.9c-10.4 1.9-21.1 2.9-32 2.9l0 16zm0-64c70.7 0 128-57.3 128-128c0-32.5-12.1-62.1-32-84.7l0 84.7c0 53-43 96-96 96s-96-43-96-96l0-84.7c-19.9 22.6-32 52.2-32 84.7c0 70.7 57.3 128 128 128zM397.8 66.4L432 112l64 0 34.2-45.6C510.9 54.7 488.2 48 464 48s-46.9 6.7-66.2 18.4zM432 192a16 16 0 1 0 0-32 16 16 0 1 0 0 32zm80-16a16 16 0 1 0 -32 0 16 16 0 1 0 32 0z"/></svg>

<svg xmlns="http://www.w3.org/2000/svg" viewBox="0 0 640 512"><!--! Font Awesome Pro 6.5.2 by @fontawesome - https://fontawesome.com License - https://fontawesome.com/license (Commercial License) Copyright 2024 Fonticons, Inc. --><path d="M243.4 44.6L296 64 243.4 83.4 224 136 204.6 83.4 152 64l52.6-19.4L224-8l19.4 52.6zM144 279c34.5-46.4 85.2-80.1 144.3-92.7c-.2-3.4-.3-6.9-.3-10.3C288 78.8 366.8 0 464 0s176 78.8 176 176c0 68.4-39 127.7-96 156.8V488v24H520 440 416V488 403.8l-80 32.9V464h24 24v48H360 120 96V488l0-64 0-.1V184c0-22.1-17.9-40-40-40H32V96H56c48.6 0 88 39.4 88 88v95zm0 144.9V464H288V400c0-17.7-14.3-32-32-32H224V320h32c39.2 0 71.8 28.2 78.7 65.4l91.2-37.6c-60-13.3-108.5-57.1-128.3-114.4C209 252.6 144 331.2 144 423.9zM464 368v96h32V349.1c-10.4 1.9-21.1 2.9-32 2.9l0 16zm0-64c70.7 0 128-57.3 128-128c0-32.5-12.1-62.1-32-84.7V176c0 53-43 96-96 96s-96-43-96-96V91.3c-19.9 22.6-32 52.2-32 84.7c0 70.7 57.3 128 128 128zM397.8 66.4L432 112h64l34.2-45.6C510.9 54.7 488.2 48 464 48s-46.9 6.7-66.2 18.4zM432 192a16 16 0 1 0 0-32 16 16 0 1 0 0 32zm80-16a16 16 0 1 0 -32 0 16 16 0 1 0 32 0z"/></svg>
